X: 006
T: Sussex Cotillion
M: 4/4
L: 1/8
K: G
|:\
G4 d4 | B2AB G2AB | c2B2 A2G2 | FGAF D3D |
E4 F4 | GFGA G2c2 | B2AG A2GF | G4 G4 :|
|:\
dedc B2d2 | dedc B2d2 | e2d2 e2f2 | g4 d2ef |
g2fe d2cB | e2dc B2AB | c2B2 A2G2 | F2EF D2D2 |
E4 F4 | GFGA G2c2 | B2AG A2GF | G4 G4 :|
